docs/img/icons/vscode-icons_file-type-html.svg

<svg width="16" height="16" viewBox="0 0 16 16" fill="none" xmlns="http://www.w3.org/2000/svg">
<path d="M2.951 13.6005L1.8275 1H14.1725L13.0475 13.5985L7.9925 15L2.951 13.6005Z" fill="#E44F26"/>
<path d="M8 13.929L12.085 12.7965L13.046 2.03052H8V13.929Z" fill="#F1662A"/>
<path d="M8 6.7035H5.955L5.814 5.121H8V3.5755H4.125L4.162 3.9905L4.5415 8.249H8V6.7035V6.7035Z" fill="#EBEBEB"/>
<path d="M8 10.717L7.993 10.719L6.272 10.2545L6.162 9.02197H4.6105L4.827 11.448L7.993 12.327L8 12.325V10.717Z" fill="#EBEBEB"/>
<path d="M7.99451 6.70349V8.24899H9.89751L9.71851 10.2535L7.99451 10.7185V12.3265L11.163 11.448L11.186 11.187L11.549 7.11849L11.587 6.70349H7.99451V6.70349Z" fill="white"/>
<path d="M7.99451 3.5755V5.121H11.7275L11.7585 4.774L11.829 3.9905L11.866 3.5755H7.99451V3.5755Z" fill="white"/>
</svg>

<svg width="16" height="16" fill="none" xmlns="http://www.w3.org/2000/svg"><path d="M2.951 13.6L1.827 1h12.345l-1.125 12.598L7.992 15l-5.041-1.4z" fill="#E44F26"/><path d="M8 13.929l4.085-1.133.961-10.765H8v11.898z" fill="#F1662A"/><path d="M8 6.704H5.955L5.814 5.12H8V3.575H4.125l.037.415.38 4.259H8V6.703zm0 4.013l-.007.002-1.721-.464-.11-1.233H4.611l.216 2.426 3.166.879.007-.002v-1.608z" fill="#EBEBEB"/><path d="M7.995 6.703V8.25h1.903l-.18 2.005-1.723.465v1.607l3.168-.878.023-.261.363-4.069.038-.415H7.995zm0-3.128v1.546h3.732l.031-.347.071-.784.037-.415H7.995z" fill="#fff"/></svg>
